X: 41786
T: Vel Shuish Ben Aeg Ny Ben Y Phoosee
R: waltz
M: 3/4
K: Amajor
A|cee e2f|g2f e2e|e2c Bce|f2f e2e|
cdc cBA|ddc BA>F|A2F EFA|c2B A2z||

